X: 1631
T: The Rose of Drishane
M:2/4
L:1/16
B:O'Neills 1631
N:"collected by Hartnett"
Z:Transcribed by Nick Terhorst, nickte@microsoft.com
N: Fixed line wrapping [jc]
K:D
f>e|d>AF>A d>ef>g|a>fb>f a>gf>g|a>fg>e f>dg>f|(3efd (3cdB A>gf>e|
d>AF>A d>ef>g|a>fb>f a>gf>g|a>fg>e f>de>c|d2d>d d2:|
|:f>g|a>fb>f a>ge>f|{a}g>ea>e g2f>g| a>fg>e f>dg>f|(3efd (3cdB A>gf>e|
|d>AF>A d>ef>g|a>fb>f a>gf>g|a>fg>e f>de>c|d2d>d d2:|


